icons/desktop/12/svg/briefcase-12.svg

<svg width="12" height="12" viewBox="0 0 12 12" fill="none" xmlns="http://www.w3.org/2000/svg">
<g clip-path="url(#clip0_8069_32472)">
<path fill-rule="evenodd" clip-rule="evenodd" d="M6 0.5C6.58675 0.5 7.12507 0.543148 7.60449 0.607422C8.41965 0.718199 8.99987 1.42012 9 2.21973V3.07812C9.25101 3.09106 9.50466 3.10448 9.76074 3.12109C11.0083 3.20209 12 4.23066 12 5.49512V9.50488C12 10.6819 11.1459 11.667 10.0068 11.8525L9.77539 11.8789C8.58492 11.9557 7.32432 12.001 6 12.001C4.8215 12.001 3.5637 11.9658 2.23926 11.8799C0.991714 11.7989 0 10.7703 0 9.50586V5.49609C0 4.24065 0.971835 3.20342 2.22461 3.12207L3 3.07715V2.21777C3.00011 1.41141 3.59723 0.713556 4.40625 0.605469C5.00263 0.526459 5.54115 0.5 6 0.5ZM6 4.25C5.40328 4.25 4.81978 4.26069 4.25 4.27832V10.7227C4.85091 10.7411 5.4347 10.751 6 10.751C6.59673 10.751 7.18021 10.7393 7.75 10.7217V4.27734C7.1491 4.25886 6.56529 4.25 6 4.25ZM9 10.6699C9.23401 10.6576 9.46552 10.6456 9.69434 10.6309C10.2896 10.5922 10.75 10.1014 10.75 9.50488V5.49512C10.75 4.90372 10.2839 4.40836 9.67969 4.36914C9.45111 4.35431 9.22446 4.34291 9 4.33105V10.6699ZM2.30566 4.37012C1.71044 4.40877 1.25 4.89954 1.25 5.49609V9.50586C1.25 10.0973 1.71607 10.5926 2.32031 10.6318C2.54887 10.6467 2.77555 10.6571 3 10.6689V4.33008C2.76597 4.3424 2.53449 4.35536 2.30566 4.37012ZM6 1.75C5.69181 1.75 5.34356 1.76326 4.96289 1.7998L4.57129 1.84473C4.39269 1.86885 4.25011 2.02851 4.25 2.21777V3.02637C4.82001 3.00934 5.40353 3 6 3C6.56554 3 7.14933 3.00845 7.75 3.02637V2.21973C7.74987 2.02172 7.60896 1.87007 7.43652 1.84668C7.00632 1.78906 6.52464 1.75 6 1.75Z" fill="black"/>
</g>
<defs>
<clipPath id="clip0_8069_32472">
<rect width="12" height="12" fill="white"/>
</clipPath>
</defs>
</svg>

<!-- This Source Code Form is subject to the terms of the Mozilla Public
   - License, v. 2.0. If a copy of the MPL was not distributed with this
   - file, You can obtain one at http://mozilla.org/MPL/2.0/. -->
<svg xmlns="http://www.w3.org/2000/svg" width="12" height="12" fill="context-fill" fill-opacity="context-fill-opacity" viewBox="0 0 12 12">
    <g clip-path="url(#clip0_8069_32472)">
        <path fill-rule="evenodd" d="M6 .5c.587 0 1.125.043 1.604.107A1.62 1.62 0 0 1 9 2.22v.858q.377.018.76.043A2.387 2.387 0 0 1 12 5.495v4.01a2.38 2.38 0 0 1-1.993 2.347l-.232.027a59 59 0 0 1-7.536 0A2.387 2.387 0 0 1 0 9.507v-4.01c0-1.255.972-2.293 2.225-2.374L3 3.077v-.86C3 1.412 3.597.715 4.406.606A12 12 0 0 1 6 .5m0 3.75q-.895 0-1.75.028v6.445q.901.027 1.75.028.895-.001 1.75-.03V4.278Q6.849 4.25 6 4.25m3 6.42q.351-.017.694-.04a1.126 1.126 0 0 0 1.056-1.125v-4.01c0-.591-.466-1.087-1.07-1.126q-.344-.021-.68-.038zm-6.694-6.3A1.126 1.126 0 0 0 1.25 5.496v4.01c0 .591.466 1.087 1.07 1.126q.344.02.68.037V4.33q-.352.018-.694.04M6 1.75c-.308 0-.656.013-1.037.05l-.392.045a.38.38 0 0 0-.321.373v.808a59 59 0 0 1 3.5 0V2.22a.37.37 0 0 0-.313-.373C7.007 1.789 6.525 1.75 6 1.75" clip-rule="evenodd" />
    </g>
</svg>
